static/fa/svgs/regular/face-grin-tongue-wink.svg

<svg xmlns="http://www.w3.org/2000/svg" viewBox="0 0 512 512"><!--! Font Awesome Free 6.1.1 by @fontawesome - https://fontawesome.com License - https://fontawesome.com/license/free (Icons: CC BY 4.0, Fonts: SIL OFL 1.1, Code: MIT License) Copyright 2022 Fonticons, Inc.--><path d="M159.6 220c-11.5 0-19.9 3.8-25.4 9.7-7.5 8-20.2 8.4-28.3.9-8.01-7.6-8.42-20.2-.9-28.3 14.6-15.5 35.3-22.3 54.6-22.3 18.5 0 40.1 6.8 54.6 22.3 7.6 8.1 7.2 20.7-.9 28.3-8.1 7.5-20.7 7.1-28.3-.9-5.4-5.9-14.7-9.7-25.4-9.7zm152.8-12c0-13.3 10.7-24 24-24 13.2 0 24 10.7 24 24s-10.8 24-24 24c-13.3 0-24-10.7-24-24zm-56.4 0c0-44.2 35.8-80 80-80s80 35.8 80 80-35.8 80-80 80-80-35.8-80-80zm80 48c26.5 0 48-21.5 48-48s-21.5-48-48-48-48 21.5-48 48 21.5 48 48 48zM0 256C0 114.6 114.6 0 256 0s256 114.6 256 256-114.6 256-256 256S0 397.4 0 256zm348.3 186.4C416.9 408.4 464 337.7 464 256c0-114.9-93.1-208-208-208S48 141.1 48 256c0 81.7 47.13 152.4 115.7 186.4-2.4-8.4-3.7-17.2-3.7-26.4v-52.4c-8.9-8-16.7-17.1-23.1-27.1-10.4-16.1 6.8-33.4 25.4-28.1 29 6.7 60.5 10.4 93.6 10.4 33.1 0 64.7-3.7 93.6-10.4 18.7-5.3 35.9 12 24.6 28.1-5.5 9.9-13.3 19-22.1 27V416c0 9.2-1.3 18-3.7 26.4zM320 416v-37.4c0-14.7-11.9-26.6-26.6-26.6h-2c-11.3 0-21.1 7.9-23.6 18.9-3.7 12.6-20.8 12.6-23.6 0-2.5-11-12.3-18.9-23.6-18.9h-2c-14.7 0-26.6 11.9-26.6 26.6V416c0 35.3 28.7 64 64 64s64-28.7 64-64z"/></svg>

<svg xmlns="http://www.w3.org/2000/svg" viewBox="0 0 512 512"><!--! Font Awesome Free 6.1.1 by @fontawesome - https://fontawesome.com License - https://fontawesome.com/license/free (Icons: CC BY 4.0, Fonts: SIL OFL 1.1, Code: MIT License) Copyright 2022 Fonticons, Inc. --><path d="M159.6 220C148.1 220 139.7 223.8 134.2 229.7C126.7 237.7 114 238.1 105.9 230.6C97.89 223 97.48 210.4 105 202.3C119.6 186.8 140.3 180 159.6 180C178.1 180 199.7 186.8 214.2 202.3C221.8 210.4 221.4 223 213.3 230.6C205.2 238.1 192.6 237.7 185 229.7C179.6 223.8 170.3 220 159.6 220zM312.4 208C312.4 194.7 323.1 184 336.4 184C349.6 184 360.4 194.7 360.4 208C360.4 221.3 349.6 232 336.4 232C323.1 232 312.4 221.3 312.4 208zM256 208C256 163.8 291.8 128 336 128C380.2 128 416 163.8 416 208C416 252.2 380.2 288 336 288C291.8 288 256 252.2 256 208zM336 256C362.5 256 384 234.5 384 208C384 181.5 362.5 160 336 160C309.5 160 288 181.5 288 208C288 234.5 309.5 256 336 256zM0 256C0 114.6 114.6 0 256 0C397.4 0 512 114.6 512 256C512 397.4 397.4 512 256 512C114.6 512 0 397.4 0 256zM348.3 442.4C416.9 408.4 464 337.7 464 256C464 141.1 370.9 48 256 48C141.1 48 48 141.1 48 256C48 337.7 95.13 408.4 163.7 442.4C161.3 434 160 425.2 160 416V363.6C151.1 355.6 143.3 346.5 136.9 336.5C126.5 320.4 143.7 303.1 162.3 308.4C191.3 315.1 222.8 318.8 255.9 318.8C289 318.8 320.6 315.1 349.5 308.4C368.2 303.1 385.4 320.4 374.1 336.5C368.6 346.4 360.8 355.5 352 363.5V416C352 425.2 350.7 434 348.3 442.4H348.3zM320 416V378.6C320 363.9 308.1 352 293.4 352H291.4C280.1 352 270.3 359.9 267.8 370.9C264.1 383.5 247 383.5 244.2 370.9C241.7 359.9 231.9 352 220.6 352H218.6C203.9 352 192 363.9 192 378.6V416C192 451.3 220.7 480 256 480C291.3 480 320 451.3 320 416z"/></svg>
